X:62
T:Post Coach, The
M:2/4
L:1/8
B:Thompson's Compleat Collection of 200 Favourite Country Dances, vol. 3 (London, 1773)
Z:Transcribed and edited by Flynn Titford-Mock, 2007
Z:abc's:AK/Fiddler's Companion
K:G
G | G g2 f/e/ | ddd>c | B/d/B/G/ A/c/A/F/ | GGG>G | G g2 f/e/ | d a2 g | fe/d/ A^c | ddd :|
|: d | d =f2 e/d/ | ccc>c | c e2 d/c/ | BBB>A | G g2 G/F/ | E e2 d/c/ | BA/G/ DF | G[DG][G,G] :|

